src/assets/age.svg

<svg fill="none" height="236" viewBox="0 0 236 236" width="236" xmlns="http://www.w3.org/2000/svg"><path d="m117.643 118.044v-117.628961c21.815 0 43.201 6.068991 61.766 17.526961z" fill="#5347d3"/><path d="m117.643 118.044 61.766-100.1021c55.276 34.118 72.432 106.5931 38.32 161.8781-28.486 46.165-84.844 66.86-136.4302 50.096z" fill="#3d03b7"/><path d="m117.643 118.044-36.344 111.872c-61.776-20.075-95.583-86.436-75.51098-148.221 2.362-7.27 5.42598-14.291 9.14898-20.966z" fill="#a09cce"/><path d="m117.643 118.044-102.7055-57.3149c13.706-24.569 35.764-43.411 62.171-53.10703z" fill="#443f7d"/><path d="m117.643 118.044-40.5336-110.42194c12.982-4.76701 26.7036-7.207021 40.5336-7.207021z" fill="#11096b"/></svg>

<svg width="236" height="236" viewBox="0 0 236 236" fill="none" xmlns="http://www.w3.org/2000/svg">
<path d="M117.643 118.044V0.415039C139.458 0.415039 160.844 6.48403 179.409 17.942L117.643 118.044Z" fill="#5347D3"/>
<path d="M117.643 118.044L179.409 17.9419C234.685 52.0599 251.841 124.535 217.729 179.82C189.243 225.985 132.885 246.68 81.2988 229.916L117.643 118.044Z" fill="#3D03B7"/>
<path d="M117.643 118.044L81.299 229.916C19.523 209.841 -14.284 143.48 5.78802 81.695C8.15002 74.425 11.214 67.404 14.937 60.729L117.643 118.044Z" fill="#A09CCE"/>
<path d="M117.643 118.044L14.9375 60.7291C28.6435 36.1601 50.7015 17.3181 77.1085 7.62207L117.643 118.044Z" fill="#443F7D"/>
<path d="M117.643 118.044L77.1094 7.62206C90.0914 2.85505 103.813 0.415039 117.643 0.415039V118.044Z" fill="#11096B"/>
</svg>
